PyTorch/utilities/dvPQ2020to709.cube
TITLE "Generated by Resolve"
LUT_3D_SIZE 5
0 0 0
0.181933 0 0
0.585306 0 0
1 0 0
1 0 0
0 0.155154 0
0.151659 0.147799 0
0.580056 0 0
1 0 0
1 0 0
0 0.499123 0
0 0.497734 0
0.487922 0.475471 0
1 0.320531 0
1 0.318334 0
0 1 0
0 1 0
0 1 0
1 0.999893 0
1 0.999451 0
0 1 0
0 1 0
0 1 0
1 1 0
1 1 0
0 0 0.15433
0.178576 0 0.153292
0.584665 0 0.135531
1 0 0
1 0 0
0 0.154665 0.148394
0.14728 0.14728 0.14728
0.5794 0 0.128328
1 0 0
1 0 0
0 0.499031 0
0 0.497642 0
0.487083 0.47538 0
1 0.320348 0
1 0.318166 0
0 1 0
0 1 0
0 1 0
1 0.999863 0
1 0.99942 0
0 1 0
0 1 0
0 1 0
1 1 0
1 1 0
0 0 0.496498
0.10631 0 0.4963
0.574472 0 0.493126
1 0 0.475929
1 0 0.475746
0 0.146975 0.495384
0 0.13901 0.495171
0.56907 0 0.491997
1 0 0.474739
1 0 0.474556
0 0.497581 0.477394
0 0.496193 0.47718
0.473823 0.473823 0.473823
1 0.317662 0.455589
1 0.31545 0.45539
0 1 0.3608
0 1 0.360479
0 1 0.355489
1 0.999313 0.327413
1 0.998871 0.327108
0 1 0.359304
0 1 0.358984
0 1 0.353964
1 1 0.325704
1 1 0.325383
0 0 1
0 0 1
0.515953 0 1
1 0 1
1 0 1
0 0.0906386 1
0 0.0733043 1
0.509667 0 1
1 0 1
1 0 1
0 0.489876 1
0 0.488441 1
0.39321 0.465568 1
1 0.302892 1
1 0.300526 1
0 1 1
0 1 1
0 1 1
0.996429 0.996429 0.996429
1 0.995987 0.996368
0 1 1
0 1 1
0 1 1
0.994339 1 0.996078
1 1 0.996017
0 0 1
0 0 1
0.515297 0 1
1 0 1
1 0 1
0 0.0897841 1
0 0.0721294 1
0.508995 0 1
1 0 1
1 0 1
0 0.489784 1
0 0.488365 1
0.392248 0.465476 1
1 0.302724 1
1 0.300359 1
0 1 1
0 1 1
0 1 1
0.99617 0.996414 1
1 0.995956 1
0 1 1
0 1 1
0 1 1
0.994079 1 1
1 1 1
