PyTorch/utilities/dvPQ2020to709.cube
TITLE "Generated by Resolve"
LUT_3D_SIZE 65
0 0 0
0.0104067 0 0
0.0186007 0 0
0.0268254 0 0
0.0353552 0 0
0.0442969 0 0
0.0536965 0 0
0.0635996 0 0
0.0740826 0 0
0.0851301 0 0
0.0968185 0 0
0.109148 0 0
0.122179 0 0
0.135943 0 0
0.150469 0 0
0.165789 0 0
0.181933 0 0
0.198978 0 0
0.216922 0 0
0.235828 0 0
0.255726 0 0
0.276661 0 0
0.298665 0 0
0.321798 0 0
0.346075 0 0
0.371542 0 0
0.398245 0 0
0.426184 0 0
0.455421 0 0
0.485939 0 0
0.517769 0 0
0.550896 0 0
0.585306 0 0
0.620981 0 0
0.657908 0 0
0.695964 0 0
0.735119 0 0
0.775235 0 0
0.81622 0 0
0.857908 0 0
0.90013 0 0
0.942718 0 0
0.985412 0 0
1 0 0
1 0 0
1 0 0
1 0 0
1 0 0
1 0 0
1 0 0
1 0 0
1 0 0
1 0 0
1 0 0
1 0 0
1 0 0
1 0 0
1 0 0
1 0 0
1 0 0
1 0 0
1 0 0
1 0 0
1 0 0
1 0 0
0 0.00888075 0
0.00868238 0.0084535 0
0.0178988 0.00695811 0
0.0264134 0 0
0.0350805 0 0
0.0440833 0 0
0.0535439 0 0
0.0634775 0 0
0.0739757 0 0
0.0850538 0 0
0.0967422 0 0
0.109102 0 0
0.122133 0 0
0.135897 0 0
0.150423 0 0
0.165743 0 0
0.181918 0 0
0.198947 0 0
0.216892 0 0
0.235798 0 0
0.255695 0 0
0.276646 0 0
0.29865 0 0
0.321782 0 0
0.346059 0 0
0.371542 0 0
0.39823 0 0
0.426184 0 0
0.455421 0 0
0.485939 0 0
0.517754 0 0
0.550881 0 0
0.585306 0 0
0.620981 0 0
0.657893 0 0
0.695949 0 0
0.735103 0 0
0.775235 0 0
0.81622 0 0
0.857908 0 0
0.90013 0 0
0.942702 0 0
0.985412 0 0
1 0 0
1 0 0
1 0 0
1 0 0
1 0 0
1 0 0
1 0 0
1 0 0
1 0 0
1 0 0
1 0 0
1 0 0
1 0 0
1 0 0
1 0 0
1 0 0
1 0 0
1 0 0
1 0 0
1 0 0
1 0 0
1 0 0
0 0.0158541 0
0 0.015671 0
0.0155032 0.0151064 0
0.0251011 0.0139467 0
0.0342107 0.0117342 0
0.043473 0.00650034 0
0.0530709 0 0
0.0631113 0 0
0.0736706 0 0
0.0848096 0 0
0.0965438 0 0
0.108919 0 0
0.121981 0 0
0.135775 0 0
0.150317 0 0
0.165652 0 0
0.181827 0 0
0.198871 0 0
0.216831 0 0
0.235752 0 0
0.25565 0 0
0.2766 0 0
0.298604 0 0
0.321736 0 0
0.346029 0 0
0.371511 0 0
0.398215 0 0
0.426154 0 0
0.45539 0 0
0.485908 0 0
0.517739 0 0
0.550866 0 0
0.58529 0 0
0.620966 0 0
0.657877 0 0
0.695949 0 0
0.735103 0 0
0.775219 0 0
0.816205 0 0
0.857908 0 0
0.90013 0 0
0.942702 0 0
0.985397 0 0
1 0 0
1 0 0
1 0 0
1 0 0
1 0 0
1 0 0
1 0 0
1 0 0
1 0 0
1 0 0
1 0 0
1 0 0
1 0 0
1 0 0
1 0 0
1 0 0
1 0 0
1 0 0
1 0 0
1 0 0
1 0 0
1 0 0
0 0.0228733 0
0 0.0227665 0
0.00836194 0.0224308 0
0.0223545 0.0217899 0
0.032517 0.0207065 0
0.0422675 0.0189212 0
0.0521706 0.0159152 0
0.0624094 0.00967422 0
0.073106 0 0
0.0843366 0 0
0.0961624 0 0
0.108598 0 0
0.121706 0 0
0.135531 0 0
0.150103 0 0
0.165469 0 0
0.181674 0 0
0.198734 0 0
0.216709 0 0
0.23563 0 0
0.255558 0 0
0.276509 0 0
0.298528 0 0
0.321675 0 0
0.345968 0 0
0.37145 0 0
0.398154 0 0
0.426108 0 0
0.455344 0 0
0.485878 0 0
0.517708 0 0
0.550835 0 0
0.58526 0 0
0.620935 0 0
0.657862 0 0
0.695918 0 0
0.735073 0 0
0.775204 0 0
0.81619 0 0
0.857877 0 0
0.900099 0 0
0.942687 0 0
0.985382 0 0
1 0 0
1 0 0
1 0 0
1 0 0
1 0 0
1 0 0
1 0 0
1 0 0
1 0 0
1 0 0
1 0 0
1 0 0
1 0 0
1 0 0
1 0 0
1 0 0
1 0 0
1 0 0
1 0 0
1 0 0
1 0 0
1 0 0
0 0.0301518 0
0 0.0300755 0
0 0.0298466 0
0.0165408 0.0294194 0
0.0294652 0.0287175 0
0.0402228 0.0276341 0
0.0506752 0.0259861 0
0.0612497 0.0234989 0
0.0721904 0.019501 0
0.0835889 0.0112612 0
0.0955367 0 0
0.108064 0 0
0.121263 0 0
0.135149 0 0
0.149767 0 0
0.165179 0 0
0.181415 0 0
0.198505 0 0
0.21651 0 0
0.235462 0 0
0.25539 0 0
0.276371 0 0
0.298405 0 0
0.321553 0 0
0.345861 0 0
0.371359 0 0
0.398062 0 0
0.426032 0 0
0.455283 0 0
0.485801 0 0
0.517647 0 0
0.550774 0 0
0.585214 0 0
0.62089 0 0
0.657816 0 0
0.695872 0 0
0.735042 0 0
0.775174 0 0
0.816159 0 0
0.857847 0 0
0.900084 0 0
0.942657 0 0
0.985367 0 0
1 0 0
1 0 0
1 0 0
1 0 0
1 0 0
1 0 0
1 0 0
1 0 0
1 0 0
1 0 0
1 0 0
1 0 0
1 0 0
1 0 0
1 0 0
1 0 0
1 0 0
1 0 0
1 0 0
1 0 0
1 0 0
1 0 0
0 0.0377661 0
0 0.0377203 0
0 0.0375525 0
0 0.0372473 0
0.0239414 0.0367437 0
0.0369268 0.0359808 0
0.0483406 0.0348669 0
0.0594797 0.0332799 0
0.0708019 0.0309911 0
0.0824598 0.0276341 0
0.0945907 0.0222782 0
0.107286 0.0100862 0
0.120592 0 0
0.134569 0 0
0.149279 0 0
0.164752 0 0
0.181033 0 0
0.198169 0 0
0.216205 0 0
0.235187 0 0
0.255161 0 0
0.276158 0 0
0.298222 0 0
0.321386 0 0
0.345708 0 0
0.371221 0 0
0.39794 0 0
0.42591 0 0
0.455177 0 0
0.48571 0 0
0.517555 0 0
0.550698 0 0
0.585138 0 0
0.620829 0 0
0.657755 0 0
0.695827 0 0
0.734981 0 0
0.775113 0 0
0.816114 0 0
0.857816 0 0
0.900038 0 0
0.942626 0 0
0.985321 0 0
1 0 0
1 0 0
1 0 0
1 0 0
1 0 0
1 0 0
1 0 0
1 0 0
1 0 0
1 0 0
1 0 0
1 0 0
1 0 0
1 0 0
1 0 0
1 0 0
1 0 0
1 0 0
1 0 0
1 0 0
1 0 0
1 0 0
0 0.0457923 0
0 0.0457465 0
0 0.0456245 0
0 0.0453803 0
0.0087892 0.0449989 0
0.0314031 0.0444343 0
0.0447547 0.0436103 0
0.0568704 0.0424659 0
0.0687724 0.0408789 0
0.080827 0.0386969 0
0.0932479 0.0356146 0
0.106157 0.0311437 0
0.119646 0.0238499 0
0.133761 0 0
0.148577 0 0
0.164141 0 0
0.180499 0 0
0.197696 0 0
0.215793 0 0
0.234821 0 0
0.254826 0 0
0.275853 0 0
0.297948 0 0
0.321141 0 0
0.345495 0 0
0.371023 0 0
0.397772 0 0
0.425757 0 0
0.455024 0 0
0.485573 0 0
0.517433 0 0
0.550591 0 0
0.585031 0 0
0.620737 0 0
0.657664 0 0
0.695735 0 0
0.734905 0 0
0.775051 0 0
0.816052 0 0
0.857755 0 0
0.899977 0 0
0.942565 0 0
0.985275 0 0
1 0 0
1 0 0
1 0 0
1 0 0
1 0 0
1 0 0
1 0 0
1 0 0
1 0 0
1 0 0
1 0 0
1 0 0
1 0 0
1 0 0
1 0 0
1 0 0
1 0 0
1 0 0
1 0 0
1 0 0
1 0 0
1 0 0
0 0.0542458 0
0 0.0542 0
0 0.0541085 0
0 0.0539254 0
0 0.0536355 0
0.0204471 0.0531777 0
0.0391546 0.0525521 0
0.0530251 0.051667 0
0.0658732 0.0504768 0
0.0785382 0.0488746 0
0.0914015 0.0467079 0
0.104616 0.0437781 0
0.118334 0.0397192 0
0.132647 0.0337224 0
0.147616 0.0233158 0
0.163302 0 0
0.179767 0 0
0.197055 0 0
0.215228 0 0
0.234318 0 0
0.254383 0 0
0.275456 0 0
0.297581 0 0
0.320821 0 0
0.345205 0 0
0.370748 0 0
0.397528 0 0
0.425544 0 0
0.454826 0 0
0.48539 0 0
0.517266 0 0
0.550439 0 0
0.584894 0 0
0.6206 0 0
0.657542 0 0
0.695628 0 0
0.734813 0 0
0.77496 0 0
0.815961 0 0
0.857664 0 0
0.899901 0 0
0.942489 0 0
0.985199 0 0
1 0 0
1 0 0
1 0 0
1 0 0
1 0 0
1 0 0
1 0 0
1 0 0
1 0 0
1 0 0
1 0 0
1 0 0
1 0 0
1 0 0
1 0 0
1 0 0
1 0 0
1 0 0
1 0 0
1 0 0
1 0 0
1 0 0
0 0.0631723 0
0 0.0631418 0
0 0.0630655 0
0 0.0629129 0
0 0.0626688 0
0 0.0623178 0
0.0293126 0.0618143 0
0.0472419 0.0611124 0
0.0617533 0.0601816 0
0.0753643 0.0589303 0
0.0888533 0.0572824 0
0.102525 0.0551308 0
0.116579 0.0522621 0
0.131151 0.0484016 0
0.146334 0.0430152 0
0.162188 0.0348516 0
0.17879 0.0181125 0
0.196201 0 0
0.214481 0 0
0.233646 0 0
0.253788 0 0
0.274922 0 0
0.297108 0 0
0.320394 0 0
0.344808 0 0
0.370398 0 0
0.397208 0 0
0.425254 0 0
0.454566 0 0
0.485161 0 0
0.517052 0 0
0.550225 0 0
0.58471 0 0
0.620432 0 0
0.657389 0 0
0.695491 0 0
0.734676 0 0
0.774823 0 0
0.815839 0 0
0.857557 0 0
0.899809 0 0
0.942397 0 0
0.985122 0 0
1 0 0
1 0 0
1 0 0
1 0 0
1 0 0
1 0 0
1 0 0
1 0 0
1 0 0
1 0 0
1 0 0
1 0 0
1 0 0
1 0 0
1 0 0
1 0 0
1 0 0
1 0 0
1 0 0
1 0 0
1 0 0
1 0 0
0 0.0726024 0
0 0.0725719 0
0 0.0725109 0
0 0.0723888 0
0 0.0721904 0
0 0.0719005 0
0 0.0714885 0
0.0378424 0.0709239 0
0.0557565 0.070161 0
0.0709697 0.0691539 0
0.0854047 0.0678569 0
0.099733 0.0661631 0
0.11426 0.0639811 0
0.129183 0.0611276 0
0.144656 0.0573892 0
0.160739 0.0523232 0
0.177523 0.0451362 0
0.195102 0.0335241 0
0.213489 0 0
0.232776 0 0
0.25301 0 0
0.274235 0 0
0.296498 0 0
0.319829 0 0
0.344305 0 0
0.36994 0 0
0.396796 0 0
0.424872 0 0
0.454215 0 0
0.48484 0 0
0.516762 0 0
0.549966 0 0
0.584466 0 0
0.620203 0 0
0.657191 0 0
0.695293 0 0
0.734493 0 0
0.77467 0 0
0.815686 0 0
0.85742 0 0
0.899672 0 0
0.942275 0 0
0.985 0 0
1 0 0
1 0 0
1 0 0
1 0 0
1 0 0
1 0 0
1 0 0
1 0 0
1 0 0
1 0 0
1 0 0
1 0 0
1 0 0
1 0 0
1 0 0
1 0 0
1 0 0
1 0 0
1 0 0
1 0 0
1 0 0
1 0 0
0 0.0825513 0
0 0.082536 0
0 0.0824903 0
0 0.0823835 0
0 0.0822156 0
0 0.0819715 0
0 0.0816358 0
0.014786 0.0811627 0
0.0465095 0.0805371 0
0.0647288 0.0797131 0
0.080705 0.078645 0
0.0959945 0.0772717 0
0.111192 0.0755322 0
0.126619 0.0733043 0
0.142473 0.0704356 0
0.158862 0.066743 0
0.175891 0.0618601 0
0.193668 0.0551919 0
0.212238 0.0453803 0
0.231662 0.027039 0
0.252018 0 0
0.27335 0 0
0.295705 0 0
0.319127 0 0
0.343664 0 0
0.36936 0 0
0.396262 0 0
0.424399 0 0
0.453788 0 0
0.484443 0 0
0.516396 0 0
0.54963 0 0
0.584161 0 0
0.619928 0 0
0.656931 0 0
0.695064 0 0
0.734279 0 0
0.774456 0 0
0.815503 0 0
0.857237 0 0
0.899504 0 0
0.942123 0 0
0.984848 0 0
1 0 0
1 0 0
1 0 0
1 0 0
1 0 0
1 0 0
1 0 0
1 0 0
1 0 0
1 0 0
1 0 0
1 0 0
1 0 0
1 0 0
1 0 0
1 0 0
1 0 0
1 0 0
1 0 0
1 0 0
1 0 0
1 0 0
0 0.09308 0
0 0.0930648 0
0 0.093019 0
0 0.0929274 0
0 0.0927901 0
0 0.0925917 0
0 0.0923018 0
0 0.0919051 0
0.0287022 0.091371 0
0.0554513 0.0906844 0
0.0741894 0.0897993 0
0.0909895 0.0886702 0
0.107164 0.0872358 0
0.123293 0.08542 0
0.139651 0.0831311 0
0.156451 0.0802319 0
0.173816 0.0765393 0
0.191852 0.0717479 0
0.210636 0.0653849 0
0.230259 0.0564889 0
0.250767 0.0424353 0
0.272236 0 0
0.294697 0 0
0.318227 0 0
0.342855 0 0
0.368627 0 0
0.395605 0 0
0.423789 0 0
0.453239 0 0
0.48394 0 0
0.515938 0 0
0.549218 0 0
0.58378 0 0
0.619577 0 0
0.656596 0 0
0.694759 0 0
0.734005 0 0
0.774197 0 0
0.815259 0 0
0.857023 0 0
0.89929 0 0
0.941924 0 0
0.984665 0 0
1 0 0
1 0 0
1 0 0
1 0 0
1 0 0
1 0 0
1 0 0
1 0 0
1 0 0
1 0 0
1 0 0
1 0 0
1 0 0
1 0 0
1 0 0
1 0 0
1 0 0
1 0 0
1 0 0
1 0 0
1 0 0
1 0 0
0 0.104189 0
0 0.104173 0
0 0.104143 0
0 0.104067 0
0 0.103944 0
0 0.103777 0
0 0.103517 0
0 0.103182 0
0 0.102739 0
0.0394293 0.102159 0
0.0647898 0.101411 0
0.084184 0.10045 0
0.101854 0.0992599 0
0.118959 0.0977493 0
0.136049 0.0958572 0
0.153384 0.0935073 0
0.171176 0.090547 0
0.189563 0.0868238 0
0.208637 0.0820783 0
0.228489 0.0758831 0
0.249195 0.0675059 0
0.270832 0.0552682 0
0.293446 0.0324407 0
0.317098 0 0
0.341848 0 0
0.367727 0 0
0.394781 0 0
0.423041 0 0
0.452552 0 0
0.483314 0 0
0.515373 0 0
0.548699 0 0
0.583291 0 0
0.619135 0 0
0.656199 0 0
0.694377 0 0
0.733654 0 0
0.773877 0 0
0.814954 0 0
0.856733 0 0
0.899031 0 0
0.94168 0 0
0.984436 0 0
1 0 0
1 0 0
1 0 0
1 0 0
1 0 0
1 0 0
1 0 0
1 0 0
1 0 0
1 0 0
1 0 0
1 0 0
1 0 0
1 0 0
1 0 0
1 0 0
1 0 0
1 0 0
1 0 0
1 0 0
1 0 0
1 0 0
0 0.115923 0
0 0.115908 0
0 0.115877 0
0 0.115816 0
0 0.115709 0
0 0.115557 0
0 0.115343 0
0 0.115053 0
0 0.114672 0
0 0.114183 0
0.0495918 0.113542 0
0.0745708 0.112718 0
0.094728 0.111711 0
0.113313 0.11043 0
0.131411 0.108843 0
0.149493 0.106889 0
0.167849 0.104448 0
0.186679 0.101427 0
0.206119 0.0976425 0
0.226291 0.0928817 0
0.247242 0.0867781 0
0.269093 0.0787213 0
0.291905 0.0674907 0
0.315709 0.0496071 0
0.340597 0 0
0.366598 0 0
0.393759 0 0
0.42211 0 0
0.451713 0 0
0.482551 0 0
0.514672 0 0
0.548058 0 0
0.582712 0 0
0.618585 0 0
0.655695 0 0
0.693919 0 0
0.733227 0 0
0.77348 0 0
0.814588 0 0
0.856397 0 0
0.898711 0 0
0.941375 0 0
0.984161 0 0
1 0 0
1 0 0
1 0 0
1 0 0
1 0 0
1 0 0
1 0 0
1 0 0
1 0 0
1 0 0
1 0 0
1 0 0
