PyTorch/utilities/dvPQ2020to709.cube
TITLE "Generated by Resolve"
LUT_3D_SIZE 9
0 0 0
0.0740826 0 0
0.181933 0 0
0.346075 0 0
0.585306 0 0
0.90013 0 0
1 0 0
1 0 0
1 0 0
0 0.0631723 0
0.0617533 0.0601816 0
0.17879 0.0181125 0
0.344808 0 0
0.58471 0 0
0.899809 0 0
1 0 0
1 0 0
1 0 0
0 0.155154 0
0 0.154314 0
0.151659 0.147799 0
0.33492 0.114824 0
0.580056 0 0
0.897261 0 0
1 0 0
1 0 0
1 0 0
0 0.295109 0
0 0.294774 0
0 0.29221 0
0.288487 0.281132 0
0.560098 0.240497 0
0.88661 0 0
1 0 0
1 0 0
1 0 0
0 0.499123 0
0 0.498955 0
0 0.497734 0
0 0.492576 0
0.487922 0.475471 0
0.851026 0.427909 0
1 0.320531 0
1 0.318334 0
1 0.318334 0
0 0.767575 0
0 0.767483 0
0 0.766812 0
0 0.764019 0
0.0683452 0.75491 0
0.750362 0.731212 0
1 0.687266 0
1 0.686519 0
1 0.686519 0
0 1 0
0 1 0
0 1 0
0 1 0
0 1 0
0.505196 1 0
1 0.999893 0
1 0.999451 0
1 0.999451 0
0 1 0
0 1 0
0 1 0
0 1 0
0 1 0
0.499718 1 0
1 1 0
1 1 0
1 1 0
0 1 0
0 1 0
0 1 0
0 1 0
0 1 0
0.499718 1 0
1 1 0
1 1 0
1 1 0
0 0 0.0628367
0.0727092 0 0.0624094
0.181552 0 0.0590066
0.345922 0 0.0402838
0.585229 0 0
0.900099 0 0
1 0 0
1 0 0
1 0 0
0 0.062974 0.0604105
0.059968 0.059968 0.059968
0.178408 0.0169528 0.0563516
0.344656 0 0.0354925
0.584634 0 0
0.899763 0 0
1 0 0
1 0 0
1 0 0
0 0.155093 0.0336309
0 0.154269 0.0325933
0.151171 0.147738 0.0222629
0.334752 0.114733 0
0.57998 0 0
0.897231 0 0
1 0 0
1 0 0
1 0 0
0 0.295094 0
0 0.294759 0
0 0.29218 0
0.288289 0.281102 0
0.560021 0.240482 0
0.886564 0 0
1 0 0
1 0 0
1 0 0
0 0.499107 0
0 0.498939 0
0 0.497719 0
0 0.492561 0
0.487816 0.475456 0
0.85098 0.427893 0
1 0.3205 0
1 0.318318 0
1 0.318318 0
0 0.767575 0
0 0.767483 0
0 0.766812 0
0 0.764019 0
0.066804 0.75491 0
0.750301 0.731212 0
1 0.687251 0
1 0.686503 0
1 0.686503 0
0 1 0
0 1 0
0 1 0
0 1 0
0 1 0
0.505104 1 0
1 0.999893 0
1 0.999451 0
1 0.999451 0
0 1 0
0 1 0
0 1 0
0 1 0
0 1 0
0.499626 1 0
1 1 0
1 1 0
1 1 0
0 1 0
0 1 0
0 1 0
0 1 0
0 1 0
0.499626 1 0
1 1 0
1 1 0
1 1 0
0 0 0.15433
0.0607309 0 0.154208
0.178576 0 0.153292
0.344717 0 0.14934
0.584665 0 0.135531
0.899779 0 0.0862135
1 0 0
1 0 0
1 0 0
0 0.0614633 0.153658
0.0427253 0.0583352 0.153536
0.175341 0 0.152605
0.34345 0 0.148638
0.584054 0 0.134722
0.899443 0 0.0846876
1 0 0
1 0 0
1 0 0
0 0.154665 0.148394
0 0.153841 0.148272
0.14728 0.14728 0.14728
0.333501 0.114092 0.143099
0.5794 0 0.128328
0.89691 0 0.0714122
1 0 0
1 0 0
1 0 0
0 0.294911 0.122942
0 0.294591 0.122774
0 0.292012 0.121492
0.286732 0.280919 0.115938
0.559411 0.240253 0.0949111
0.886244 0 0
1 0 0
1 0 0
1 0 0
0 0.499031 0
0 0.498863 0
0 0.497642 0
0 0.492485 0
0.487083 0.47538 0
0.850645 0.427802 0
1 0.320348 0
1 0.318166 0
1 0.318166 0
0 0.767529 0
0 0.767437 0
0 0.766766 0
0 0.763973 0
0.0528725 0.754864 0
0.749905 0.731167 0
1 0.687205 0
1 0.686458 0
1 0.686458 0
0 1 0
0 1 0
0 1 0
0 1 0
0 1 0
0.504402 1 0
1 0.999863 0
1 0.99942 0
1 0.99942 0
0 1 0
0 1 0
0 1 0
0 1 0
0 1 0
0.498909 1 0
1 1 0
1 1 0
1 1 0
0 1 0
0 1 0
0 1 0
0 1 0
0 1 0
0.498909 1 0
1 1 0
1 1 0
1 1 0
0 0 0.293568
0 0 0.293523
0.165331 0 0.293141
0.339666 0 0.291569
0.582269 0 0.286442
0.898466 0 0.272877
1 0 0.246754
1 0 0.246296
1 0 0.246296
0 0.0545052 0.293294
0 0.0507668 0.293248
0.16173 0 0.292866
0.338369 0 0.291295
0.581659 0 0.286168
0.898146 0 0.272572
1 0 0.246403
1 0 0.245945
1 0 0.245945
0 0.152895 0.291203
0 0.152056 0.291157
0.129335 0.145388 0.290776
0.328206 0.111345 0.289189
0.576974 0 0.284001
0.895598 0 0.270253
1 0 0.243732
1 0 0.243259
1 0 0.243259
0 0.294209 0.282261
0 0.293873 0.282216
0 0.291279 0.281819
0.280156 0.280156 0.280156
0.556863 0.239292 0.274723
0.884916 0 0.260288
1 0 0.23212
1 0 0.231632
1 0 0.231632
0 0.49868 0.250401
0 0.498527 0.25034
0 0.497292 0.249866
0 0.492134 0.247898
0.483986 0.475013 0.241428
0.849226 0.427375 0.22388
1 0.319722 0.187686
1 0.317525 0.187015
1 0.317525 0.187015
0 0.767346 0.116381
0 0.767254 0.116197
0 0.766583 0.114809
0 0.763775 0.108782
0 0.754665 0.0851453
0.748211 0.730968 0
1 0.686992 0
1 0.686244 0
1 0.686244 0
0 1 0
0 1 0
0 1 0
0 1 0
0 1 0
0.501457 1 0
1 0.999725 0
1 0.999283 0
1 0.999283 0
0 1 0
0 1 0
0 1 0
0 1 0
0 1 0
0.495918 1 0
1 1 0
1 1 0
1 1 0
0 1 0
0 1 0
0 1 0
0 1 0
0 1 0
0.495918 1 0
1 1 0
1 1 0
1 1 0
0 0 0.496498
0 0 0.496483
0.10631 0 0.4963
0.322652 0 0.495552
0.574472 0 0.493126
0.894255 0 0.486946
1 0 0.475929
1 0 0.475746
1 0 0.475746
0 0 0.496376
0 0 0.496345
0.0994125 0 0.496178
0.321248 0 0.49543
0.573846 0 0.493004
0.893919 0 0.486809
1 0 0.475792
1 0 0.475608
1 0 0.475608
0 0.146975 0.495384
0 0.14609 0.495354
0 0.13901 0.495171
0.310292 0.101808 0.494423
0.56907 0 0.491997
0.891356 0 0.485786
1 0 0.474739
1 0 0.474556
1 0 0.474556
0 0.29189 0.491203
0 0.291554 0.491173
0 0.28893 0.49099
0.257359 0.277684 0.490227
0.548562 0.236194 0.48777
0.880598 0 0.481483
1 0 0.470283
1 0 0.4701
1 0 0.4701
0 0.497581 0.477394
0 0.497414 0.477363
0 0.496193 0.47718
0 0.49102 0.476387
0.473823 0.473823 0.473823
0.844663 0.426001 0.467277
1 0.317662 0.455589
1 0.31545 0.45539
1 0.31545 0.45539
0 0.766735 0.439796
0 0.766644 0.439765
0 0.765972 0.439551
0 0.76318 0.438666
0 0.754055 0.435782
0.742748 0.730312 0.428412
1 0.68629 0.415152
1 0.685527 0.414923
1 0.685527 0.414923
0 1 0.3608
0 1 0.360754
0 1 0.360479
0 1 0.359304
0 1 0.355489
0.491798 1 0.345602
1 0.999313 0.327413
1 0.998871 0.327108
1 0.998871 0.327108
0 1 0.359304
0 1 0.359258
0 1 0.358984
0 1 0.357794
0 1 0.353964
0.486107 1 0.344015
1 1 0.325704
1 1 0.325383
1 1 0.325383
0 1 0.359304
0 1 0.359258
0 1 0.358984
0 1 0.357794
0 1 0.353964
0.486107 1 0.344015
1 1 0.325704
1 1 0.325383
1 1 0.325383
0 0 0.763561
0 0 0.763546
0 0 0.763455
0.272801 0 0.763043
0.554101 0 0.761715
0.883467 0 0.758373
1 0 0.752514
1 0 0.752422
1 0 0.752422
0 0 0.763485
0 0 0.763485
0 0 0.763378
0.271031 0 0.762966
0.553445 0 0.761654
0.883131 0 0.758297
1 0 0.752438
1 0 0.752346
1 0 0.752346
0 0.130327 0.762951
0 0.129259 0.762936
0 0.12076 0.762829
0.256947 0.0691081 0.762417
0.548409 0 0.761105
0.880522 0 0.757748
1 0 0.751888
1 0 0.751781
1 0 0.751781
0 0.285924 0.760678
0 0.285573 0.760662
0 0.282887 0.760555
0.181003 0.271275 0.760143
0.526757 0.228092 0.758816
0.869566 0 0.755459
1 0 0.749554
1 0 0.749462
1 0 0.749462
0 0.494789 0.753277
0 0.494621 0.753277
0 0.493385 0.75317
0 0.488167 0.752758
0.446723 0.470832 0.751415
0.832959 0.422522 0.747997
1 0.312383 0.742016
1 0.310109 0.741924
1 0.310109 0.741924
0 0.765209 0.734173
0 0.765133 0.734157
0 0.764446 0.734051
0 0.761639 0.733623
0 0.752499 0.732219
0.728695 0.728695 0.728695
1 0.684504 0.722484
1 0.683757 0.722377
1 0.683757 0.722377
0 1 0.699184
0 1 0.699168
0 1 0.699062
0 1 0.698604
0 1 0.697108
0.466163 1 0.693309
1 0.99826 0.686656
1 0.997818 0.686549
1 0.997818 0.686549
0 1 0.698604
0 1 0.698589
0 1 0.698466
0 1 0.698009
0 1 0.696513
0.460029 1 0.692714
1 1 0.686046
1 1 0.685939
1 1 0.685939
0 1 0.698604
0 1 0.698589
0 1 0.698466
0 1 0.698009
0 1 0.696513
0.460029 1 0.692714
1 1 0.686046
1 1 0.685939
1 1 0.685939
0 0 1
0 0 1
0 0 1
0.1196 0 1
0.515953 0 1
0.864271 0 1
1 0 1
1 0 1
1 0 1
0 0 1
0 0 1
0 0 1
0.113817 0 1
0.515221 0 1
0.86392 0 1
1 0 1
1 0 1
1 0 1
0 0.0906386 1
0 0.0888685 1
0 0.0733043 1
0.0282597 0 1
0.509667 0 1
0.861234 0 1
1 0 1
1 0 1
1 0 1
0 0.275135 1
0 0.274754 1
0 0.271916 1
0 0.259602 1
0.485527 0.21297 1
0.849928 0 1
1 0 1
1 0 1
1 0 1
0 0.489876 1
0 0.489708 1
0 0.488441 1
0 0.483162 1
0.39321 0.465568 1
0.81207 0.416373 1
1 0.302892 1
1 0.300526 1
1 0.300526 1
0 0.762554 1
0 0.762478 1
0 0.761791 1
0 0.758968 1
0 0.749783 1
0.703319 0.725841 1
1 0.681392 1
1 0.680644 1
1 0.680644 1
0 1 1
0 1 1
0 1 1
0 1 1
0 1 1
0.416205 1 1
0.996429 0.996429 0.996429
1 0.995987 0.996368
1 0.995987 0.996368
0 1 1
0 1 1
0 1 1
0 1 1
0 1 1
0.408988 1 1
0.994339 1 0.996078
1 1 0.996017
1 1 0.996017
0 1 1
0 1 1
0 1 1
0 1 1
0 1 1
0.408988 1 1
0.994339 1 0.996078
1 1 0.996017
1 1 0.996017
0 0 1
0 0 1
0 0 1
0.114382 0 1
0.515297 0 1
0.863951 0 1
1 0 1
1 0 1
1 0 1
0 0 1
0 0 1
0 0 1
0.108202 0 1
0.514565 0 1
0.8636 0 1
1 0 1
1 0 1
1 0 1
0 0.0897841 1
0 0.0879835 1
0 0.0721294 1
0 0 1
0.508995 0 1
0.860914 0 1
1 0 1
1 0 1
1 0 1
0 0.274952 1
0 0.274586 1
0 0.271733 1
0 0.259419 1
0.48481 0.212711 1
0.849607 0 1
1 0 1
1 0 1
1 0 1
0 0.489784 1
0 0.489632 1
0 0.488365 1
0 0.48307 1
0.392248 0.465476 1
0.811719 0.416281 1
1 0.302724 1
1 0.300359 1
1 0.300359 1
0 0.762509 1
0 0.762432 1
0 0.761746 1
0 0.758923 1
0 0.749737 1
0.702892 0.725795 1
1 0.681346 1
1 0.680583 1
1 0.680583 1
0 1 1
0 1 1
0 1 1
0 1 1
0 1 1
0.41532 1 1
0.99617 0.996414 1
1 0.995956 1
1 0.995956 1
0 1 1
0 1 1
0 1 1
0 1 1
0 1 1
0.408087 1 1
0.994079 1 1
1 1 1
1 1 1
0 1 1
0 1 1
0 1 1
0 1 1
0 1 1
0.408087 1 1
0.994079 1 1
1 1 1
1 1 1
0 0 1
0 0 1
0 0 1
0.114382 0 1
0.515297 0 1
0.863951 0 1
1 0 1
1 0 1
1 0 1
0 0 1
0 0 1
0 0 1
0.108202 0 1
0.514565 0 1
0.8636 0 1
1 0 1
1 0 1
1 0 1
0 0.0897841 1
0 0.0879835 1
0 0.0721294 1
0 0 1
0.508995 0 1
0.860914 0 1
1 0 1
1 0 1
1 0 1
0 0.274952 1
0 0.274586 1
0 0.271733 1
0 0.259419 1
0.48481 0.212711 1
0.849607 0 1
1 0 1
1 0 1
1 0 1
0 0.489784 1
0 0.489632 1
0 0.488365 1
0 0.48307 1
0.392248 0.465476 1
0.811719 0.416281 1
1 0.302724 1
1 0.300359 1
1 0.300359 1
0 0.762509 1
0 0.762432 1
0 0.761746 1
0 0.758923 1
0 0.749737 1
0.702892 0.725795 1
1 0.681346 1
1 0.680583 1
1 0.680583 1
0 1 1
0 1 1
0 1 1
0 1 1
0 1 1
0.41532 1 1
0.99617 0.996414 1
1 0.995956 1
1 0.995956 1
0 1 1
0 1 1
0 1 1
0 1 1
0 1 1
0.408087 1 1
0.994079 1 1
1 1 1
1 1 1
0 1 1
0 1 1
0 1 1
0 1 1
0 1 1
0.408087 1 1
0.994079 1 1
1 1 1
1 1 1
